FINK
CUT[ES BLIES EIN JAEGER]
REG[Europa, Mitteleuropa, Deutschland]
KEY[F0661B 08  A 4/4]
MEL[-5_  1_1_123_  321_2__
    22222_12  3__0_
    12  33335_3_  21234__
    3_.43_1_  2_.32_
    5_  3333322_  1__0_ //] >>
FCT[Staende -, Jaeger - Lied, Liebe, Tod]
